src/assets/duotone/HeartSlash.svg

<svg width="24" height="24" viewBox="0 0 24 24"  xmlns="http://www.w3.org/2000/svg">
<path opacity="0.4" d="M21.9999 8.69008C21.9999 9.88008 21.8099 10.9801 21.4799 12.0001C19.8999 17.0001 15.0299 19.9901 12.6199 20.8101C12.2799 20.9301 11.7199 20.9301 11.3799 20.8101C10.7399 20.5901 9.92988 20.2201 9.05988 19.7001C8.49988 19.3701 8.40987 18.5901 8.86987 18.1301L20.1499 6.85008C20.6899 6.31008 21.6399 6.54007 21.8299 7.28007C21.9399 7.73007 21.9999 8.20008 21.9999 8.69008Z" />
<path d="M22.53 1.47043C22.24 1.18043 21.7599 1.18043 21.4699 1.47043L19.13 3.81043C18.34 3.36043 17.42 3.10043 16.44 3.10043C14.63 3.10043 13.01 3.98042 12 5.33042C10.99 3.98042 9.36997 3.10043 7.55997 3.10043C4.48997 3.10043 1.99997 5.60043 1.99997 8.69043C1.99997 9.88043 2.18999 10.9804 2.51999 12.0004C3.16999 14.0704 4.38999 15.8004 5.76999 17.1704L1.46994 21.4704C1.17994 21.7604 1.17994 22.2404 1.46994 22.5304C1.61994 22.6804 1.80997 22.7504 1.99997 22.7504C2.18997 22.7504 2.38 22.6804 2.53 22.5304L22.53 2.53043C22.82 2.24043 22.82 1.76043 22.53 1.47043Z" />
</svg>

<?xml version="1.0" encoding="UTF-8"?>
<svg width="24" height="24" viewBox="0 0 24 24" xmlns="http://www.w3.org/2000/svg">
 <path d="m22 8.6901c0 1.19-0.19 2.29-0.52 3.31-1.58 5-6.45 7.99-8.86 8.81-0.34 0.12-0.9 0.12-1.24 0-0.64-0.22-1.45-0.59-2.32-1.11-0.56-0.33-0.65001-1.11-0.19001-1.57l11.28-11.28c0.54-0.54 1.49-0.31001 1.68 0.42999 0.11 0.45 0.17 0.92001 0.17 1.41z" opacity=".4"/>
 <path d="m22.53 1.4704c-0.29-0.29-0.7701-0.29-1.0601 0l-2.3399 2.34c-0.79-0.45-1.71-0.71-2.69-0.71-1.81 0-3.43 0.87999-4.44 2.23-1.01-1.35-2.63-2.23-4.44-2.23-3.07 0-5.56 2.5-5.56 5.59 0 1.19 0.19002 2.29 0.52002 3.31 0.65 2.07 1.87 3.8 3.25 5.17l-4.3 4.3c-0.29 0.29-0.29 0.77 0 1.06 0.15 0.15 0.34003 0.22 0.53003 0.22s0.38003-0.07 0.53003-0.22l20-20c0.29-0.29 0.29-0.77 0-1.06z"/>
</svg>
